X:25
T:Hardiman the Fiddler
R:slip jig
D:Paul O'Shaughnessy & Paul McGrattan: Within a Mile from Dublin
Z:id:hn-slipjig-25
M:9/8
K:Dmix
~A2G FDE ~F2G|~A3 AGA cAG|~A2G FDE ~F2G|Add ded cAG:|
|:Add d2e ~f3|Add ded cAG|1 Add d2e ~f2g|agf ged cAG:|2 dcA d2e f2g|agf ged cAG||
<end>
<start>
